X:1395
T:Cutting Ferns
O:england
M:4/4
L:1/8
S:Strathspey & Reel Society of New Hampshire 7.28
R:Strathsphey
K:Am
|:B|"Am"A<A a2 "G"geg2|"C"e>dB>A "G"G>AB<G|"Am" A<A a2 "G"g<eg2|
"Em"e>dB<g "Am"B<A A:|
g|"Am"e>dB>A "G"G>AB<G|"Am"e>dB>A "G"B2B<g|"Am"e>dB>A "G"G>AB<d|"Em"e>dg
<B "Am"A2A<g|
e>dB>A "G"G>AB<G|"Am"e>dB>A "G"B2B<g|"Am"e>dB>A "G"G>AB<d|"Em"e>dg<B Am"
A2A||


